X:50
T: Zeitenlied
N: A0404
O: Europa, Mitteleuropa, Deutschland
N: Dresdner Cod. M. 53. 16. Jh.
R: Romanze, Ballade, Lied, Kriegslied
M: 4/2
L: 1/2
K: C
C | CCCG, | C2D2 |
G2 | GF2ED2 | C2z
C | CCCG, | C2D2 |
G2 | GF2ED2 | C2z
F | EDCD | E2E2z
E | F2FG2F | E2z
D | FEDC | G2G2 |
G2 | GF2ED2 | C3

@@@ Tune index: 363
